X:239
T: Oh, Joe! The Boat Is Going Over
R: polka 32
M: 2/4
L: 1/8
K:Dmaj
F3G|A3B|Afed|c2B2|
[1 E3F|G3A|BcBA|F3G:|
[2 e2f2|gec>B|AABc|d3A||
FAd>A|FAd>c|dfed|c2B2|
[1 cde>d|cde>d|cdcB|A2A>G:|
[2 e2f2|gec>B|AABc|d3 A||

